X: 06
M: C|
L: 1/8
K: C
EF |\
g2e2 g2c2 | d2c2 d2e2 | c2A2 c2E2 | G4 G3B |\
gfga g2ef | gfga g2ef | gfed cdef | g4 g4 |\
a3b a2g2 | c'3b a2g2 | agfe defg | a4 a2G2 |
cBcd edef | gfga g2fe | d2c2 B2A2 | G4 G3B |\


